X: 40179
T: Time Machine
R: waltz
M: 3/4
K: Aminor
Ae ef ec|d2 de d/c/B|AE EF E^D|EA ^Gc B^G|
Ae ef ec|d2 de d/c/B|A^G A/B/c B^G|1 A3 EFE:|2 AB cd e^g||
ae ea e=g|^f2 df f/g/f|eA A^G Ac|BE E=F E^D|
EA AB ce|dA ^FG Ac|BE =GE ^GE|AB cd e^g|
ae ea e=g|^f2 df f/g/f|eA A^G Ac|BE E=F E^D|
EC =DE Ac|dA d^f gf|e2 A/B/c B^G|A3 EFE||

